!!!SOCIAL_FUNCTION:	songs with legends of whaling
!!!PDT:	1939
!!!OTL: No_4_Song_to_Make_a_Wounded_Whale_Swim_Toward_Shore.krn
!!!LANG: Non-Tone
!!!LING_GROUP: Wakashan
!!!REG: Pacific Northwest
**kern	**kern
*staff2	*staff1
=1-	=1-
*clefF4	*clefF4
*k[f#c#]	*k[f#c#]
*M2/4	*M2/4
2r	4r
.	8r
.	16r
.	16A\
=2	=2
2r	[2A\
=3	=3
2r	4.A\]
.	8r
=4||	=4||
*M3/4	*M3/4
2.r	2.A\
=5||	=5||
*M2/4	*M2/4
2r	8G#\L
.	8Gn\J
.	8F#\
.	8r
=6||	=6||
*M3/4	*M3/4
2.r	8G\
.	8r
.	4r
.	8G\L
.	8G\J
=7	=7
2.r	4G\
.	4r
.	8G\L
.	8G\J
=8||	=8||
*M2/4	*M2/4
2r	2F#\
=9	=9
2r	8F#\L
.	8Fn\J
.	8E\L
.	8D#\J
=10	=10
2r	4r
.	8F#\L
.	8F#\J
=11	=11
2r	[2F#\
=12	=12
2r	4F#\]
.	8D\
.	8r
=13	=13
2r	2r
=14!|:	=14!|:
2r	4F#\
.	8.G\L
.	16A\Jk
=15	=15
2r	8.A\L
.	[16G\Jk
.	8.G\L]
.	16F#\Jk
=16	=16
2r	4F#\
.	8r
.	16r
.	16G\
=17	=17
2r	16A\LK
.	[8.G\J
.	8.G\L]
.	16F#\Jk
=18	=18
2r	4.G\
.	16F#\LL
.	16G\JJ
=19	=19
2r	8.F#\L
.	16F#\Jk
.	8F#\
.	16r
.	16A\
=20	=20
2r	16A\LK
.	[8.G\J
.	8.G\L]
.	16F#\Jk
=21	=21
2r	4.F#\
.	16D\LL
.	16F#\JJ
=22	=22
2r	4F#\
.	8r
.	16r
.	16F#\
=23	=23
2r	16A\LK
.	[8.G\J
.	8.G\L]
.	16F#\Jk
=24||	=24||
*M3/4	*M3/4
2.r	16G\LK
.	[8.F#\J
.	4F#\]
.	16F#\LK
.	8E\
.	16E\Jk
=25	=25
2.r	8.F#\L
.	16F#\Jk
.	8F#\
.	8r
.	4r
==:|!	==:|!
*-	*-
